dist/img/logo/logo-little.svg

<svg width="267" height="60" viewBox="0 0 267 60" fill="none" xmlns="http://www.w3.org/2000/svg">
<path d="M0.950195 33.9999V12.9999H10.7002C13.2002 12.9999 15.2202 13.7099 16.7602 15.1299C18.3202 16.5299 19.1002 18.2699 19.1002 20.3499C19.1002 22.4299 18.3202 24.1799 16.7602 25.5999C15.2202 26.9999 13.2002 27.6999 10.7002 27.6999H5.4502V33.9999H0.950195ZM5.4502 23.4999H10.5502C11.7902 23.4999 12.7502 23.2099 13.4302 22.6299C14.1102 22.0499 14.4502 21.2899 14.4502 20.3499C14.4502 19.4099 14.1102 18.6499 13.4302 18.0699C12.7502 17.4899 11.7902 17.1999 10.5502 17.1999H5.4502V23.4999ZM22.5561 33.9999V12.9999H38.3061V17.1999H27.0561V21.3999H36.0561V25.2999H27.0561V29.7999H38.3061V33.9999H22.5561ZM42.0525 33.9999V12.9999H46.5525V29.7999H56.9025V33.9999H42.0525ZM59.7619 33.9999V12.9999H64.2619V29.7999H74.6119V33.9999H59.7619ZM77.4713 33.9999V12.9999H93.2213V17.1999H81.9713V21.3999H90.9713V25.2999H81.9713V29.7999H93.2213V33.9999H77.4713ZM95.3178 17.1999V12.9999H113.318V17.1999H106.568V33.9999H102.068V17.1999H95.3178ZM114.971 27.3999H119.621C119.801 27.9999 120.091 28.5299 120.491 28.9899C121.371 30.0299 122.681 30.5499 124.421 30.5499C127.021 30.5499 128.321 29.7499 128.321 28.1499C128.321 27.7499 128.181 27.3899 127.901 27.0699C127.641 26.7499 127.221 26.4699 126.641 26.2299C126.081 25.9899 125.531 25.7999 124.991 25.6599C124.471 25.4999 123.791 25.3099 122.951 25.0899C122.831 25.0699 122.731 25.0499 122.651 25.0299C122.591 25.0099 122.501 24.9899 122.381 24.9699C122.281 24.9299 122.191 24.8999 122.111 24.8799C117.951 23.8799 115.871 21.8699 115.871 18.8499C115.871 17.0499 116.601 15.5299 118.061 14.2899C119.541 13.0299 121.511 12.3999 123.971 12.3999C127.171 12.3999 129.591 13.4799 131.231 15.6399C131.911 16.5999 132.391 17.6699 132.671 18.8499H128.021C127.901 18.4299 127.671 18.0299 127.331 17.6499C126.571 16.8499 125.451 16.4499 123.971 16.4499C122.831 16.4499 121.971 16.6699 121.391 17.1099C120.811 17.5299 120.521 18.0599 120.521 18.6999C120.521 19.8599 121.841 20.7399 124.481 21.3399C125.161 21.4999 125.581 21.5999 125.741 21.6399C125.921 21.6799 126.331 21.7899 126.971 21.9699C127.631 22.1499 128.071 22.2999 128.291 22.4199C128.531 22.5199 128.921 22.6899 129.461 22.9299C130.021 23.1499 130.411 23.3599 130.631 23.5599C130.871 23.7599 131.171 24.0299 131.531 24.3699C131.911 24.6899 132.181 25.0199 132.341 25.3599C132.501 25.6999 132.641 26.0999 132.761 26.5599C132.901 26.9999 132.971 27.4799 132.971 27.9999C132.971 29.8599 132.221 31.4299 130.721 32.7099C129.221 33.9699 127.121 34.5999 124.421 34.5999C120.861 34.5999 118.251 33.3999 116.591 30.9999C115.811 29.9599 115.271 28.7599 114.971 27.3999ZM172.609 33.9999V12.9999H177.109V21.2499H186.409V12.9999H190.909V33.9999H186.409V25.4499H177.109V33.9999H172.609ZM197.816 31.3899C195.616 29.2299 194.516 26.5999 194.516 23.4999C194.516 20.3999 195.616 17.7799 197.816 15.6399C200.036 13.4799 202.786 12.3999 206.066 12.3999C209.346 12.3999 212.086 13.4799 214.286 15.6399C216.506 17.7799 217.616 20.3999 217.616 23.4999C217.616 26.5999 216.506 29.2299 214.286 31.3899C212.086 33.5299 209.346 34.5999 206.066 34.5999C202.786 34.5999 200.036 33.5299 197.816 31.3899ZM201.206 18.5499C199.946 19.8299 199.316 21.4799 199.316 23.4999C199.316 25.5199 199.946 27.1799 201.206 28.4799C202.486 29.7599 204.106 30.3999 206.066 30.3999C208.026 30.3999 209.636 29.7599 210.896 28.4799C212.176 27.1799 212.816 25.5199 212.816 23.4999C212.816 21.4799 212.176 19.8299 210.896 18.5499C209.636 17.2499 208.026 16.5999 206.066 16.5999C204.106 16.5999 202.486 17.2499 201.206 18.5499ZM221.211 33.9999V12.9999H227.961L233.061 24.9999H233.811L238.911 12.9999H245.661V33.9999H241.161V20.6499L241.461 17.9499H241.161L236.361 29.1999H230.511L225.711 17.9499H225.411L225.711 20.6499V33.9999H221.211ZM250.024 33.9999V12.9999H265.774V17.1999H254.524V21.3999H263.524V25.2999H254.524V29.7999H265.774V33.9999H250.024Z" fill="black"/>
<path d="M153.201 2C153.201 2 152.111 5.93362 154.602 9.25684C157.646 13.3091 165.983 17.548 166 24.6522C166 34.571 156.003 35.6222 156.003 35.6222C156.003 35.6222 161.33 30.6713 159.981 25.5678C158.978 21.8037 155.069 19.7691 153.495 16.2763C152.163 13.3261 152.492 10.7828 152.492 10.7828C152.492 10.7828 147.476 15.1912 145.124 20.8542C144.501 22.3293 144.017 23.9231 144.103 25.5508C144.553 33.1129 151.419 31.3326 150.451 27.7889C149.742 25.127 146.161 24.4148 144.501 20.0404C143.757 18.0736 143.809 15.1403 143.809 15.1403C143.809 15.1403 138.17 21.4138 139.104 27.8059C140.108 34.961 147.286 38.2673 152.163 34.2997C157.041 30.3322 155.57 24.7539 150.9 19.82C146.784 15.4794 145.4 10.8845 146.697 8.06998C148.41 4.33982 153.201 2 153.201 2Z" stroke="url(#paint0_linear)" stroke-width="2" stroke-miterlimit="10"/>
<path d="M153.201 2C153.201 2 152.111 5.93362 154.602 9.25684C157.646 13.3091 165.983 17.548 166 24.6522C166 34.571 156.003 35.6222 156.003 35.6222C156.003 35.6222 161.33 30.6713 159.981 25.5678C158.978 21.8037 155.069 19.7691 153.495 16.2763C152.163 13.3261 152.492 10.7828 152.492 10.7828C152.492 10.7828 147.476 15.1912 145.124 20.8542C144.501 22.3293 144.017 23.9231 144.103 25.5508C144.553 33.1129 151.419 31.3326 150.451 27.7889C149.742 25.127 146.161 24.4148 144.501 20.0404C143.757 18.0736 143.809 15.1403 143.809 15.1403C143.809 15.1403 138.17 21.4138 139.104 27.8059C140.108 34.961 147.286 38.2673 152.163 34.2997C157.041 30.3322 155.57 24.7539 150.9 19.82C146.784 15.4794 145.4 10.8845 146.697 8.06998C148.41 4.33982 153.201 2 153.201 2Z" stroke="#F53C3C" stroke-width="2" stroke-miterlimit="10"/>
<defs>
<linearGradient id="paint0_linear" x1="169.462" y1="7.1" x2="136.728" y2="35.2188" gradientUnits="userSpaceOnUse">
<stop stop-color="#FF2020"/>
<stop offset="0.369792" stop-color="#FFB763"/>
<stop offset="0.708333" stop-color="#75D7ED"/>
<stop offset="1" stop-color="#086397"/>
</linearGradient>
</defs>
</svg>

<svg width="267" height="60" fill="none" xmlns="http://www.w3.org/2000/svg"><path d="M.95 34V13h9.75c2.5 0 4.52.71 6.06 2.13 1.56 1.4 2.34 3.14 2.34 5.22 0 2.08-.78 3.83-2.34 5.25-1.54 1.4-3.56 2.1-6.06 2.1H5.45V34H.95zm4.5-10.5h5.1c1.24 0 2.2-.29 2.88-.87.68-.58 1.02-1.34 1.02-2.28 0-.94-.34-1.7-1.02-2.28-.68-.58-1.64-.87-2.88-.87h-5.1v6.3zM22.556 34V13h15.75v4.2h-11.25v4.2h9v3.9h-9v4.5h11.25V34h-15.75zm19.497 0V13h4.5v16.8h10.35V34h-14.85zm17.709 0V13h4.5v16.8h10.35V34h-14.85zm17.71 0V13h15.75v4.2h-11.25v4.2h9v3.9h-9v4.5h11.25V34h-15.75zm17.846-16.8V13h18v4.2h-6.75V34h-4.5V17.2h-6.75zm19.653 10.2h4.65c.18.6.47 1.13.87 1.59.88 1.04 2.19 1.56 3.93 1.56 2.6 0 3.9-.8 3.9-2.4 0-.4-.14-.76-.42-1.08-.26-.32-.68-.6-1.26-.84-.56-.24-1.11-.43-1.65-.57-.52-.16-1.2-.35-2.04-.57-.12-.02-.22-.04-.3-.06-.06-.02-.15-.04-.27-.06-.1-.04-.19-.07-.27-.09-4.16-1-6.24-3.01-6.24-6.03 0-1.8.73-3.32 2.19-4.56 1.48-1.26 3.45-1.89 5.91-1.89 3.2 0 5.62 1.08 7.26 3.24.68.96 1.16 2.03 1.44 3.21h-4.65c-.12-.42-.35-.82-.69-1.2-.76-.8-1.88-1.2-3.36-1.2-1.14 0-2 .22-2.58.66-.58.42-.87.95-.87 1.59 0 1.16 1.32 2.04 3.96 2.64.68.16 1.1.26 1.26.3.18.04.59.15 1.23.33.66.18 1.1.33 1.32.45.24.1.63.27 1.17.51.56.22.95.43 1.17.63.24.2.54.47.9.81.38.32.65.65.81.99.16.34.3.74.42 1.2.14.44.21.92.21 1.44 0 1.86-.75 3.43-2.25 4.71-1.5 1.26-3.6 1.89-6.3 1.89-3.56 0-6.17-1.2-7.83-3.6-.78-1.04-1.32-2.24-1.62-3.6zm57.638 6.6V13h4.5v8.25h9.3V13h4.5v21h-4.5v-8.55h-9.3V34h-4.5zm25.207-2.61c-2.2-2.16-3.3-4.79-3.3-7.89 0-3.1 1.1-5.72 3.3-7.86 2.22-2.16 4.97-3.24 8.25-3.24 3.28 0 6.02 1.08 8.22 3.24 2.22 2.14 3.33 4.76 3.33 7.86 0 3.1-1.11 5.73-3.33 7.89-2.2 2.14-4.94 3.21-8.22 3.21-3.28 0-6.03-1.07-8.25-3.21zm3.39-12.84c-1.26 1.28-1.89 2.93-1.89 4.95s.63 3.68 1.89 4.98c1.28 1.28 2.9 1.92 4.86 1.92 1.96 0 3.57-.64 4.83-1.92 1.28-1.3 1.92-2.96 1.92-4.98 0-2.02-.64-3.67-1.92-4.95-1.26-1.3-2.87-1.95-4.83-1.95s-3.58.65-4.86 1.95zM221.211 34V13h6.75l5.1 12h.75l5.1-12h6.75v21h-4.5V20.65l.3-2.7h-.3l-4.8 11.25h-5.85l-4.8-11.25h-.3l.3 2.7V34h-4.5zm28.813 0V13h15.75v4.2h-11.25v4.2h9v3.9h-9v4.5h11.25V34h-15.75z" fill="#000"/><path d="M153.201 2s-1.09 3.934 1.401 7.257c3.044 4.052 11.381 8.291 11.398 15.395 0 9.919-9.997 10.97-9.997 10.97s5.327-4.95 3.978-10.054c-1.003-3.764-4.912-5.799-6.486-9.292-1.332-2.95-1.003-5.493-1.003-5.493s-5.016 4.408-7.368 10.071c-.623 1.475-1.107 3.07-1.021 4.697.45 7.562 7.316 5.782 6.348 2.238-.709-2.662-4.29-3.374-5.95-7.749-.744-1.966-.692-4.9-.692-4.9s-5.639 6.274-4.705 12.666c1.004 7.155 8.182 10.461 13.059 6.494 4.878-3.968 3.407-9.546-1.263-14.48-4.116-4.34-5.5-8.936-4.203-11.75C148.41 4.34 153.201 2 153.201 2z" stroke="url(#paint0_linear)" stroke-width="2" stroke-miterlimit="10"/><path d="M153.201 2s-1.09 3.934 1.401 7.257c3.044 4.052 11.381 8.291 11.398 15.395 0 9.919-9.997 10.97-9.997 10.97s5.327-4.95 3.978-10.054c-1.003-3.764-4.912-5.799-6.486-9.292-1.332-2.95-1.003-5.493-1.003-5.493s-5.016 4.408-7.368 10.071c-.623 1.475-1.107 3.07-1.021 4.697.45 7.562 7.316 5.782 6.348 2.238-.709-2.662-4.29-3.374-5.95-7.749-.744-1.966-.692-4.9-.692-4.9s-5.639 6.274-4.705 12.666c1.004 7.155 8.182 10.461 13.059 6.494 4.878-3.968 3.407-9.546-1.263-14.48-4.116-4.34-5.5-8.936-4.203-11.75C148.41 4.34 153.201 2 153.201 2z" stroke="#F53C3C" stroke-width="2" stroke-miterlimit="10"/><defs><linearGradient id="paint0_linear" x1="169.462" y1="7.1" x2="136.728" y2="35.219" gradientUnits="userSpaceOnUse"><stop stop-color="#FF2020"/><stop offset=".37" stop-color="#FFB763"/><stop offset=".708" stop-color="#75D7ED"/><stop offset="1" stop-color="#086397"/></linearGradient></defs></svg>
